public/assets/usdt.svg

<svg width="39" height="39" viewBox="0 0 39 39" fill="none" xmlns="http://www.w3.org/2000/svg">
<circle cx="19.5" cy="19.5" r="19.5" fill="#50AF95"/>
<path fill-rule="evenodd" clip-rule="evenodd" d="M21.6364 20.1759C21.5171 20.1843 20.9006 20.2185 19.5254 20.2185C18.4316 20.2185 17.655 20.188 17.3825 20.1759C13.1555 20.0029 10.0003 19.3182 10.0003 18.4984C10.0003 17.6785 13.1555 16.9947 17.3825 16.8189V19.494C17.6589 19.5125 18.4504 19.556 19.5442 19.556C20.8568 19.556 21.5141 19.5051 21.6324 19.4949V16.8208C25.8505 16.9957 28.9987 17.6804 28.9987 18.4984C28.9987 19.3163 25.8515 20.0011 21.6324 20.175L21.6364 20.1759ZM21.6364 16.5441V14.1503H27.523V10.5H11.4959V14.1503H17.3815V16.5432C12.5976 16.7477 9 17.6295 9 18.6862C9 19.7429 12.5976 20.6238 17.3815 20.8292V28.5H21.6354V20.8264C26.4084 20.6219 30 19.741 30 18.6853C30 17.6295 26.4113 16.7486 21.6354 16.5432L21.6364 16.5441Z" fill="white"/>
</svg>

<svg width="39" height="39" fill="none" xmlns="http://www.w3.org/2000/svg"><circle cx="19.5" cy="19.5" r="19.5" fill="#50AF95"/><path fill-rule="evenodd" clip-rule="evenodd" d="M21.636 20.176c-.119.008-.735.043-2.11.043-1.094 0-1.871-.031-2.143-.043-4.227-.173-7.383-.858-7.383-1.678s3.155-1.503 7.383-1.68v2.676a34.21 34.21 0 0 0 2.161.062c1.313 0 1.97-.05 2.088-.061V16.82c4.218.175 7.367.86 7.367 1.677 0 .818-3.147 1.503-7.367 1.677h.004Zm0-3.632V14.15h5.887V10.5H11.496v3.65h5.885v2.393C12.598 16.748 9 17.63 9 18.686c0 1.057 3.598 1.938 8.381 2.143V28.5h4.254v-7.674c4.773-.204 8.365-1.085 8.365-2.14 0-1.056-3.589-1.937-8.365-2.143l.001.001Z" fill="#fff"/></svg>
